; generated by Slic3r 0.8.2 on 2013-07-02 at 16:28:00

; layer_height = 0.4
; perimeters = 3
; solid_layers = 3
; fill_density = 0.4
; nozzle_diameter = 0.5
; filament_diameter = 3
; extrusion_multiplier = 1
; perimeter_speed = 30
; infill_speed = 60
; travel_speed = 130
; extrusion_width_ratio = 0
; scale = 1
; single wall width = 0.53mm

M104 S200 ; set temperature
G28 ; home all axes
M109 S200 ; wait for temperature to be reached
G90 ; use absolute coordinates
G21 ; set units to millimeters
G92 E0 ; reset extrusion distance
M82 ; use absolute distances for extrusion
G1 Z0.400 F7800.000
G1 X63.454 Y63.027
G1 F1800.000 E1.00000
G1 X63.804 Y62.687 F540.000 E1.01435
G1 X65.624 Y61.227 E1.08296
G1 X65.894 Y61.037 E1.09267
G1 X66.474 Y60.707 E1.11229
G1 X95.144 Y48.467 E2.02896
G1 X95.634 Y48.297 E2.04421
G1 X99.044 Y47.637 E2.14634
G1 X99.894 Y47.577 E2.17140
G1 X100.474 Y47.607 E2.18847
G1 X100.754 Y47.637 E2.19675
G1 X101.884 Y47.887 E2.23079
G1 X104.404 Y48.587 E2.30769
G1 X105.104 Y48.827 E2.32945
G1 X133.474 Y60.687 E3.23364
G1 X133.784 Y60.847 E3.24390
G1 X134.364 Y61.217 E3.26413
G1 X136.184 Y62.687 E3.33293
G1 X136.704 Y63.207 E3.35455
G1 X138.164 Y64.987 E3.42225
G1 X138.344 Y65.247 E3.43155
G1 X138.664 Y65.787 E3.45000
G1 X138.924 Y66.357 E3.46843
G1 X151.334 Y98.037 E4.46891
G1 X151.584 Y98.867 E4.49440
G1 X152.034 Y100.817 E4.55325
G1 X152.104 Y101.277 E4.56693
G1 X152.204 Y103.847 E4.64256
G1 X152.194 Y104.147 E4.65139
G1 X152.164 Y104.457 E4.66054
G1 X151.584 Y107.107 E4.74031
G1 X151.484 Y107.437 E4.75045
G1 X151.364 Y107.747 E4.76023
G1 X151.224 Y108.057 E4.77023
G1 X138.314 Y131.467 E5.55635
G1 X137.774 Y132.287 E5.58522
G1 X136.504 Y133.887 E5.64529
G1 X135.894 Y134.497 E5.67065
G1 X135.434 Y134.847 E5.68765
G1 X132.784 Y136.527 E5.77991
G1 X105.294 Y151.337 E6.69811
G1 X105.024 Y151.457 E6.70680
G1 X104.444 Y151.667 E6.72494
G1 X104.144 Y151.747 E6.73407
G1 X100.944 Y152.357 E6.82986
G1 X100.094 Y152.417 E6.85492
G1 X99.514 Y152.387 E6.87199
G1 X99.234 Y152.357 E6.88027
G1 X98.104 Y152.107 E6.91431
G1 X95.344 Y151.337 E6.99856
G1 X94.614 Y151.047 E7.02166
G1 X66.834 Y136.307 E7.94641
G1 X64.554 Y134.847 E8.02602
G1 X64.094 Y134.497 E8.04302
G1 X63.484 Y133.887 E8.06838
G1 X62.214 Y132.287 E8.12845
G1 X61.674 Y131.467 E8.15732
G1 X48.784 Y108.097 E8.94213
G1 X48.664 Y107.837 E8.95055
G1 X48.464 Y107.307 E8.96720
G1 X47.874 Y104.747 E9.04446
G1 X47.804 Y104.157 E9.06193
G1 X47.854 Y101.537 E9.13898
G1 X47.954 Y100.827 E9.16007
G1 X48.404 Y98.867 E9.21920
G1 X48.654 Y98.037 E9.24469
G1 X61.194 Y66.067 E10.25451
G1 X61.324 Y65.787 E10.26359
G1 X61.644 Y65.247 E10.28204
G1 X61.824 Y64.987 E10.29134
G1 X63.284 Y63.207 E10.35904
G1 X63.400 Y63.084 E10.36400
G1 F1800.000 E9.36400
G92 E0
G1 X106.314 Y137.592 F7800.000
G1 F1800.000 E1.00000
G1 X106.016 Y136.468 F540.000 E1.03418
G1 X104.684 Y134.806 E1.09683
G1 X102.460 Y132.862 E1.18366
G1 X100.374 Y131.745 E1.25325
G1 X100.082 Y131.500 E1.26447
G1 X98.203 Y130.142 E1.33263
G1 X96.757 Y128.302 E1.40146
G1 X95.516 Y126.146 E1.47461
G1 X94.843 Y123.950 E1.54215
G1 X94.645 Y120.586 E1.64124
G1 X94.654 Y120.547 E1.64241
G1 X95.161 Y117.474 E1.73399
G1 X94.386 Y116.782 E1.76453
G1 X93.848 Y116.470 E1.78282
G1 X92.875 Y114.721 E1.84166
G1 X91.986 Y111.418 E1.94224
G1 X90.896 Y109.716 E2.00167
G1 X87.876 Y108.043 E2.10319
G1 X87.537 Y107.745 E2.11647
G1 X86.981 Y107.733 E2.13285
G1 X84.824 Y107.385 E2.19707
G1 X82.713 Y107.517 E2.25926
G1 X82.317 Y107.582 E2.27106
G1 X80.560 Y108.191 E2.32576
G1 X78.203 Y109.833 E2.41021
G1 X76.973 Y112.468 E2.49572
G1 X77.177 Y116.282 E2.60806
G1 X78.033 Y119.387 E2.70275
G1 X78.650 Y122.356 E2.79192
G1 X78.708 Y125.211 E2.87591
G1 X78.544 Y125.690 E2.89079
G1 X78.612 Y125.390 E2.89984
G1 X78.441 Y122.243 E2.99251
G1 X76.237 Y116.258 E3.18006
G1 X75.961 Y112.821 E3.28146
G1 X76.779 Y110.412 E3.35624
G1 X79.501 Y107.631 E3.47069
G1 X84.372 Y104.538 E3.64035
G1 X84.560 Y104.436 E3.64663
G1 X88.107 Y102.259 E3.76902
G1 X88.475 Y101.648 E3.79000
G1 X89.770 Y100.695 E3.83728
G1 X88.360 Y99.655 E3.88880
G1 X87.771 Y99.037 E3.91391
G1 X87.157 Y98.924 E3.93228
G1 X85.539 Y98.428 E3.98203
G1 X84.914 Y98.437 E4.00042
G1 X81.408 Y98.392 E4.10351
G1 X78.587 Y98.826 E4.18744
G1 X76.053 Y99.578 E4.26516
G1 X74.301 Y100.417 E4.32230
G1 X72.788 Y101.837 E4.38332
G1 X70.844 Y103.857 E4.46575
G1 X70.634 Y104.053 E4.47421
G1 X70.709 Y103.968 E4.47755
G1 X72.451 Y101.770 E4.56004
G1 X74.482 Y99.841 E4.64241
G1 X76.766 Y98.306 E4.72333
G1 X77.049 Y98.182 E4.73239
G1 X79.264 Y97.020 E4.80595
G1 X82.006 Y95.882 E4.89326
G1 X85.611 Y94.800 E5.00393
G1 X87.494 Y94.527 E5.05989
G1 X89.041 Y94.006 E5.10789
G1 X89.062 Y92.295 E5.15822
G1 X88.091 Y91.942 E5.18862
G1 X87.720 Y91.708 E5.20149
G1 X87.583 Y91.659 E5.20578
G1 X86.964 Y91.270 E5.22727
G1 X83.450 Y90.092 E5.33627
G1 X80.026 Y88.202 E5.45128
G1 X78.060 Y86.739 E5.52333
G1 X77.098 Y84.465 E5.59593
G1 X76.969 Y82.413 E5.65639
G1 X77.024 Y82.152 E5.66424
G1 X78.111 Y77.957 E5.79165
G1 X78.140 Y82.302 E5.91942
G1 X78.730 Y84.368 E5.98259
G1 X80.090 Y85.847 E6.04168
G1 X81.569 Y86.598 E6.09046
G1 X83.894 Y87.111 E6.16046
G1 X90.950 Y86.959 E6.36799
G1 X93.430 Y86.590 E6.44172
G1 X96.174 Y85.266 E6.53133
G1 X100.358 Y82.829 E6.67371
G1 X100.762 Y82.504 E6.68896
G1 X103.534 Y80.690 E6.78636
G1 X105.382 Y77.653 E6.89088
G1 X105.194 Y75.361 E6.95852
G1 X105.129 Y74.893 E6.97240
G1 X104.651 Y73.440 E7.01738
G1 X104.383 Y72.895 E7.03526
G1 X102.685 Y71.381 E7.10213
G1 X101.331 Y70.478 E7.14999
G1 X96.514 Y67.814 E7.31185
G1 X94.804 Y66.125 E7.38253
G1 X93.878 Y64.009 E7.45046
G1 X93.682 Y62.433 E7.49716
G1 X93.975 Y63.543 E7.53092
G1 X95.237 Y65.214 E7.59248
G1 X97.151 Y66.954 E7.66856
G1 X102.108 Y69.248 E7.82918
G1 X104.016 Y70.297 E7.89320
G1 X106.204 Y71.804 E7.97133
G1 X108.347 Y74.141 E8.06457
G1 X109.122 Y77.090 E8.15420
G1 X108.920 Y80.405 E8.25187
G1 X108.226 Y83.445 E8.34356
G1 X108.690 Y84.612 E8.38048
G1 X108.866 Y85.289 E8.40106
G1 X112.824 Y87.012 E8.52802
G1 X116.265 Y87.393 E8.62981
G1 X118.517 Y86.861 E8.69785
G1 X119.905 Y86.083 E8.74464
G1 X121.248 Y84.623 E8.80298
G1 X121.839 Y82.531 E8.86690
G1 X121.862 Y77.964 E9.00119
G1 X122.235 Y79.682 E9.05290
G1 X122.961 Y82.318 E9.13330
G1 X123.010 Y82.597 E9.14162
G1 X122.879 Y84.733 E9.20457
G1 X121.926 Y87.102 E9.27963
G1 X120.312 Y88.604 E9.34445
G1 X117.119 Y90.293 E9.45067
G1 X113.139 Y91.250 E9.57104
G1 X112.068 Y91.884 E9.60764
G1 X110.938 Y92.294 E9.64299
G1 X110.958 Y94.006 E9.69333
G1 X112.506 Y94.527 E9.74134
G1 X114.389 Y94.800 E9.79730
G1 X117.994 Y95.882 E9.90797
G1 X120.736 Y97.020 E9.99528
G1 X122.951 Y98.182 E10.06884
G1 X123.234 Y98.306 E10.07790
G1 X125.518 Y99.841 E10.15882
G1 X127.549 Y101.770 E10.24119
G1 X129.291 Y103.968 E10.32368
G1 X129.366 Y104.053 E10.32702
G1 X125.699 Y100.417 E10.47888
G1 X123.947 Y99.578 E10.53602
G1 X121.413 Y98.826 E10.61374
G1 X118.592 Y98.392 E10.69767
G1 X115.086 Y98.437 E10.80076
G1 X114.461 Y98.428 E10.81914
G1 X112.843 Y98.924 E10.86890
G1 X112.229 Y99.037 E10.88726
G1 X111.640 Y99.655 E10.91238
G1 X110.230 Y100.695 E10.96390
G1 X111.525 Y101.648 E11.01118
G1 X111.893 Y102.259 E11.03216
G1 X120.499 Y107.631 E11.33047
G1 X123.221 Y110.412 E11.44492
G1 X124.039 Y112.821 E11.51970
G1 X123.763 Y116.258 E11.62110
G1 X121.559 Y122.243 E11.80865
G1 X121.388 Y125.390 E11.90132
G1 X121.456 Y125.690 E11.91037
G1 X121.292 Y125.211 E11.92525
G1 X121.350 Y122.356 E12.00924
G1 X121.967 Y119.387 E12.09841
G1 X122.823 Y116.282 E12.19310
G1 X123.027 Y112.468 E12.30543
G1 X121.797 Y109.833 E12.39095
G1 X119.440 Y108.191 E12.47539
G1 X117.683 Y107.582 E12.53010
G1 X117.287 Y107.517 E12.54190
G1 X115.176 Y107.385 E12.60409
G1 X113.019 Y107.733 E12.66831
G1 X112.463 Y107.745 E12.68469
G1 X112.124 Y108.043 E12.69797
G1 X108.943 Y109.806 E12.80491
G1 X108.254 Y111.941 E12.87089
G1 X108.235 Y112.031 E12.87357
G1 X107.135 Y114.653 E12.95720
G1 X107.106 Y114.779 E12.96100
G1 X106.175 Y116.727 E13.02448
G1 X105.163 Y117.572 E13.06325
G1 X103.920 Y118.100 E13.10296
G1 X103.871 Y118.125 E13.10458
G1 X103.003 Y118.379 E13.13118
G1 X100.942 Y118.650 E13.19229
G1 X99.873 Y118.684 E13.22374
G1 X98.282 Y123.341 E13.36846
G1 X98.172 Y123.881 E13.38466
G1 X98.279 Y126.014 E13.44746
G1 X98.383 Y126.587 E13.46458
G1 X99.487 Y129.099 E13.54527
G1 X100.725 Y130.828 E13.60779
G1 X103.166 Y132.392 E13.69304
G1 X105.162 Y134.119 E13.77066
G1 X106.126 Y136.116 E13.83586
G1 X106.304 Y137.513 E13.87729
G1 F1800.000 E12.87729
G92 E0
G1 X129.660 Y120.584 F7800.000
G1 F1800.000 E1.00000
G1 X129.714 Y120.586 F540.000 E1.00159
G1 X131.462 Y121.388 E1.05814
G1 X131.499 Y121.466 E1.06069
G1 X129.731 Y120.617 E1.11836
G1 F1800.000 E0.11836
G92 E0
G1 X70.340 Y120.584 F7800.000
G1 F1800.000 E1.00000
G1 X68.501 Y121.466 F540.000 E1.05998
G1 X68.538 Y121.388 E1.06254
G1 X70.264 Y120.597 E1.11836
G1 F1800.000 E0.11836
G92 E0
G1 X67.293 Y122.940 F7800.000
G1 F1800.000 E1.00000
G1 X67.239 Y123.006 F540.000 E1.00250
G1 X66.895 Y124.307 E1.04206
G1 X66.838 Y126.166 E1.09675
G1 X67.514 Y128.045 E1.15549
G1 X68.465 Y129.217 E1.19985
G1 X69.984 Y130.315 E1.25498
G1 X72.078 Y130.768 E1.31797
G1 X73.819 Y130.661 E1.36926
G1 X75.612 Y129.811 E1.42760
G1 X76.899 Y128.499 E1.48165
G1 X77.725 Y126.979 E1.53253
G1 X78.094 Y125.346 E1.58174
G1 X77.930 Y122.345 E1.67012
G1 X75.729 Y116.373 E1.85728
G1 X75.439 Y112.755 E1.96401
G1 X76.324 Y110.140 E2.04518
G1 X79.175 Y107.228 E2.16501
G1 X84.110 Y104.095 E2.33692
G1 X84.298 Y103.992 E2.34323
G1 X87.734 Y101.879 E2.46182
G1 X88.087 Y101.294 E2.48192
G1 X88.902 Y100.695 E2.51167
G1 X88.018 Y100.043 E2.54394
G1 X87.513 Y99.514 E2.56546
G1 X87.034 Y99.425 E2.57978
G1 X85.466 Y98.944 E2.62803
G1 X84.914 Y98.953 E2.64424
G1 X81.444 Y98.907 E2.74628
G1 X78.700 Y99.330 E2.82792
G1 X76.239 Y100.060 E2.90342
G1 X74.595 Y100.847 E2.95701
G1 X73.156 Y102.199 E3.01507
G1 X71.205 Y104.226 E3.09780
G1 X69.630 Y105.692 E3.16107
G1 X67.633 Y107.327 E3.23697
G1 X66.014 Y108.288 E3.29232
G1 X63.767 Y109.077 E3.36236
G1 X62.439 Y109.410 E3.40261
G1 X59.868 Y109.345 E3.47824
G1 X58.472 Y109.010 E3.52045
G1 X56.928 Y108.221 E3.57144
G1 X55.775 Y107.262 E3.61554
G1 X54.667 Y105.279 E3.68234
G1 X54.312 Y103.693 E3.73013
G1 X54.362 Y102.018 E3.77940
G1 X54.730 Y100.427 E3.82742
G1 X55.542 Y99.061 E3.87417
G1 X56.613 Y97.999 E3.91849
G1 X58.121 Y97.307 E3.96730
G1 X60.224 Y97.044 E4.02962
G1 X61.766 Y97.601 E4.07781
G1 X62.068 Y97.687 E4.08707
G1 X62.498 Y98.064 E4.10389
G1 X62.054 Y97.755 E4.11981
G1 X61.604 Y97.637 E4.13347
G1 X60.159 Y97.131 E4.17850
G1 X58.175 Y97.354 E4.23722
G1 X57.295 Y97.909 E4.26781
G1 X57.052 Y98.037 E4.27588
G1 X55.861 Y99.132 E4.32346
G1 X55.032 Y100.603 E4.37310
G1 X54.625 Y101.922 E4.41371
G1 X54.512 Y103.316 E4.45482
G1 X54.764 Y104.702 E4.49625
G1 X55.847 Y106.876 E4.56766
G1 X57.144 Y107.891 E4.61609
G1 X58.400 Y108.627 E4.65891
G1 X59.686 Y108.989 E4.69821
G1 X61.633 Y109.077 E4.75551
G1 X62.829 Y108.832 E4.79140
G1 X64.664 Y108.216 E4.84834
G1 X66.341 Y107.309 E4.90441
G1 X68.528 Y105.648 E4.98516
G1 X70.314 Y103.637 E5.06424
G1 X72.070 Y101.421 E5.14737
G1 X74.166 Y99.431 E5.23237
G1 X76.517 Y97.853 E5.31562
G1 X76.826 Y97.718 E5.32554
G1 X79.045 Y96.553 E5.39924
G1 X81.833 Y95.396 E5.48800
G1 X85.499 Y94.296 E5.60056
G1 X87.374 Y94.024 E5.65627
G1 X88.531 Y93.634 E5.69216
G1 X88.543 Y92.654 E5.72099
G1 X87.863 Y92.407 E5.74226
G1 X87.494 Y92.174 E5.75508
G1 X87.357 Y92.126 E5.75936
G1 X86.742 Y91.739 E5.78071
G1 X83.242 Y90.565 E5.88927
G1 X79.746 Y88.636 E6.00668
G1 X77.633 Y87.064 E6.08412
G1 X76.590 Y84.585 E6.16319
G1 X76.450 Y82.376 E6.22831
G1 X76.523 Y82.029 E6.23871
G1 X78.548 Y74.379 E6.47142
G1 X78.807 Y71.406 E6.55917
G1 X78.409 Y69.601 E6.61352
G1 X77.624 Y68.093 E6.66353
G1 X76.563 Y67.080 E6.70665
G1 X75.013 Y66.423 E6.75616
G1 X72.782 Y65.958 E6.82316
G1 X70.976 Y66.292 E6.87719
G1 X69.468 Y66.805 E6.92402
G1 X68.324 Y67.770 E6.96801
G1 X67.351 Y68.978 E7.01363
G1 X66.893 Y70.848 E7.07025
G1 X66.903 Y72.418 E7.11640
G1 X67.237 Y73.728 E7.15617
G1 X67.217 Y73.708 E7.15700
G1 X66.616 Y72.168 E7.20561
G1 X66.618 Y70.684 E7.24923
G1 X67.132 Y68.795 E7.30681
G1 X68.139 Y67.566 E7.35355
G1 X69.399 Y66.544 E7.40125
G1 X71.069 Y65.883 E7.45405
G1 X72.747 Y65.614 E7.50402
G1 X74.946 Y65.967 E7.56952
G1 X76.764 Y66.835 E7.62876
G1 X78.021 Y67.986 E7.67887
G1 X78.846 Y69.571 E7.73142
G1 X79.317 Y71.405 E7.78711
G1 X79.184 Y74.440 E7.87643
G1 X78.620 Y77.505 E7.96807
G1 X78.655 Y82.230 E8.10701
G1 X79.192 Y84.109 E8.16448
G1 X80.406 Y85.430 E8.21725
G1 X81.744 Y86.109 E8.26137
G1 X83.948 Y86.595 E8.32774
G1 X90.903 Y86.446 E8.53230
G1 X93.277 Y86.092 E8.60286
G1 X95.932 Y84.811 E8.68954
G1 X100.061 Y82.407 E8.83004
G1 X100.459 Y82.086 E8.84507
G1 X103.152 Y80.324 E8.93973
G1 X104.854 Y77.520 E9.03616
G1 X104.682 Y75.417 E9.09821
G1 X104.625 Y75.010 E9.11029
G1 X104.173 Y73.635 E9.15285
G1 X103.965 Y73.212 E9.16672
G1 X102.370 Y71.790 E9.22957
G1 X101.059 Y70.916 E9.27589
G1 X96.201 Y68.228 E9.43916
G1 X94.369 Y66.415 E9.51495
G1 X93.376 Y64.147 E9.58775
G1 X93.080 Y61.769 E9.65819
G1 X93.586 Y58.335 E9.76027
G1 X95.467 Y55.941 E9.84979
G1 X97.473 Y54.566 E9.92131
G1 X99.872 Y54.108 E9.99314
G1 X102.572 Y54.843 E10.07543
G1 X103.907 Y55.842 E10.12444
G1 X104.862 Y57.124 E10.17146
G1 X105.390 Y58.782 E10.22262
G1 X105.470 Y60.902 E10.28500
G1 X104.684 Y62.502 E10.33740
G1 X103.353 Y63.584 E10.38785
G1 X104.492 Y62.284 E10.43868
G1 X104.679 Y61.778 E10.45455
G1 X105.232 Y60.576 E10.49346
G1 X105.177 Y58.633 E10.55060
G1 X104.729 Y57.746 E10.57982
G1 X104.594 Y57.420 E10.59021
G1 X103.529 Y56.111 E10.63983
G1 X101.953 Y55.199 E10.69337
G1 X99.829 Y54.758 E10.75715
G1 X97.441 Y55.194 E10.82856
G1 X95.283 Y56.689 E10.90574
G1 X94.093 Y59.218 E10.98792
G1 X94.029 Y61.695 E11.06079
G1 X94.449 Y63.318 E11.11010
G1 X95.617 Y64.864 E11.16708
G1 X97.446 Y66.526 E11.23974
G1 X102.347 Y68.791 E11.39850
G1 X104.294 Y69.862 E11.46384
G1 X106.536 Y71.407 E11.54391
G1 X108.809 Y73.883 E11.64275
G1 X109.643 Y77.048 E11.73900
G1 X109.432 Y80.478 E11.84003
G1 X108.764 Y83.403 E11.92828
G1 X109.180 Y84.451 E11.96143
G1 X109.298 Y84.906 E11.97524
G1 X112.961 Y86.509 E12.09281
G1 X116.233 Y86.871 E12.18962
G1 X118.328 Y86.376 E12.25291
G1 X119.582 Y85.673 E12.29516
G1 X120.786 Y84.364 E12.34747
G1 X121.324 Y82.460 E12.40565
G1 X121.352 Y77.541 E12.55030
G1 X120.816 Y74.444 E12.64273
G1 X120.683 Y71.405 E12.73217
G1 X121.154 Y69.571 E12.78786
G1 X121.979 Y67.986 E12.84042
G1 X123.236 Y66.835 E12.89052
G1 X125.057 Y65.965 E12.94987
G1 X127.252 Y65.614 E13.01523
G1 X128.931 Y65.883 E13.06523
G1 X130.601 Y66.544 E13.11804
G1 X131.861 Y67.566 E13.16574
G1 X132.868 Y68.795 E13.21248
G1 X133.382 Y70.684 E13.27005
G1 X133.384 Y72.168 E13.31367
G1 X132.783 Y73.708 E13.36228
G1 X132.763 Y73.728 E13.36312
G1 X133.097 Y72.418 E13.40289
G1 X133.107 Y70.848 E13.44903
G1 X132.649 Y68.978 E13.50565
G1 X131.676 Y67.770 E13.55127
G1 X130.532 Y66.805 E13.59527
G1 X129.024 Y66.292 E13.64210
G1 X127.218 Y65.958 E13.69613
G1 X124.988 Y66.423 E13.76310
G1 X123.435 Y67.082 E13.81272
G1 X122.376 Y68.093 E13.85575
G1 X121.591 Y69.601 E13.90576
G1 X121.193 Y71.406 E13.96010
G1 X121.452 Y74.373 E14.04770
G1 X123.464 Y82.205 E14.28546
G1 X123.528 Y82.567 E14.29629
G1 X123.388 Y84.849 E14.36351
G1 X122.367 Y87.395 E14.44419
G1 X120.613 Y89.027 E14.51462
G1 X117.303 Y90.779 E14.62475
G1 X113.335 Y91.733 E14.74475
G1 X112.289 Y92.352 E14.78049
G1 X111.457 Y92.654 E14.80650
G1 X111.469 Y93.634 E14.83534
