; generated by Slic3r 1.3.0 on 2020-04-20 at 21:15:36

; external perimeters extrusion width = 0.55mm (4.37mm^3/s)
; perimeters extrusion width = 0.70mm (11.44mm^3/s)
; infill extrusion width = 0.62mm (13.45mm^3/s)
; solid infill extrusion width = 0.70mm (3.81mm^3/s)
; top infill extrusion width = 0.70mm (2.86mm^3/s)

M107
M104 S200 ; set temperature
G28 ; home all axes
G1 Z5 F5000 ; lift nozzle

; Filament gcode

M109 S200 ; set temperature and wait for it to be reached
G21 ; set units to millimeters
G90 ; use absolute coordinates
M82 ; use absolute distances for extrusion
G92 E0
G1 Z0.350 F7800.000
G1 E-2.00000 F2400.00000
G92 E0
G1 X89.030 Y46.271 F7800.000
G1 E2.00000 F2400.00000
G1 F1800
G1 X89.655 Y45.240 E2.03730
G1 X90.197 Y44.548 E2.06450
G1 X91.275 Y43.468 E2.11171
G1 X91.977 Y42.917 E2.13933
G1 X93.022 Y42.286 E2.17709
G1 X93.623 Y41.994 E2.19777
G1 X94.233 Y41.735 E2.21827
G1 X94.866 Y41.537 E2.23879
G1 X95.878 Y41.288 E2.27103
G1 X96.724 Y41.167 E2.29748
G1 X97.220 Y41.128 E2.31288
G1 X97.937 Y41.100 E2.33508
G1 X102.063 Y41.100 E2.46275
G1 X103.254 Y41.167 E2.49964
G1 X104.358 Y41.340 E2.53424
G1 X105.134 Y41.537 E2.55901
G1 X105.776 Y41.738 E2.57982
G1 X106.377 Y41.994 E2.60003
G1 X106.978 Y42.286 E2.62071
G1 X108.023 Y42.917 E2.65848
G1 X108.725 Y43.468 E2.68609
G1 X109.803 Y44.548 E2.73329
G1 X110.344 Y45.240 E2.76048
G1 X110.970 Y46.271 E2.79780
G1 X111.263 Y46.872 E2.81851
G1 X111.529 Y47.496 E2.83948
G1 X111.728 Y48.131 E2.86005
G1 X111.981 Y49.161 E2.89287
G1 X112.087 Y49.861 E2.91479
G1 X120.708 Y138.049 E5.65645
G1 X120.828 Y139.511 E5.70185
G1 X120.848 Y140.024 E5.71773
G1 X120.824 Y141.651 E5.76808
G1 X120.790 Y142.172 E5.78423
G1 X120.600 Y143.782 E5.83439
G1 X120.513 Y144.301 E5.85068
G1 X120.153 Y145.898 E5.90131
G1 X119.849 Y146.917 E5.93423
G1 X119.499 Y147.933 E5.96748
G1 X119.311 Y148.415 E5.98347
G1 X119.023 Y149.070 E6.00564
G1 X118.638 Y149.897 E6.03385
G1 X118.395 Y150.369 E6.05028
G1 X117.569 Y151.775 E6.10075
G1 X117.290 Y152.201 E6.11649
G1 X116.328 Y153.514 E6.16683
G1 X115.997 Y153.921 E6.18308
G1 X114.898 Y155.133 E6.23370
G1 X114.134 Y155.868 E6.26652
G1 X113.324 Y156.584 E6.29995
G1 X112.918 Y156.914 E6.31615
G1 X112.343 Y157.342 E6.33833
G1 X111.601 Y157.870 E6.36652
G1 X111.172 Y158.151 E6.38238
G1 X109.755 Y158.973 E6.43306
G1 X109.303 Y159.206 E6.44880
G1 X107.806 Y159.879 E6.49959
G1 X107.326 Y160.067 E6.51551
G1 X105.777 Y160.579 E6.56600
G1 X104.741 Y160.844 E6.59908
G1 X103.686 Y161.067 E6.63244
G1 X102.624 Y161.224 E6.66567
G1 X101.556 Y161.337 E6.69889
G1 X101.045 Y161.370 E6.71475
G1 X99.405 Y161.387 E6.76549
G1 X98.895 Y161.367 E6.78129
G1 X97.262 Y161.215 E6.83203
G1 X96.754 Y161.142 E6.84791
G1 X95.150 Y160.823 E6.89851
G1 X94.660 Y160.700 E6.91413
G1 X93.091 Y160.217 E6.96494
G1 X92.613 Y160.044 E6.98068
G1 X91.105 Y159.403 E7.03136
G1 X90.647 Y159.181 E7.04710
G1 X89.210 Y158.387 E7.09790
G1 X88.769 Y158.114 E7.11398
G1 X87.431 Y157.181 E7.16442
G1 X87.030 Y156.872 E7.18008
G1 X85.783 Y155.797 E7.23101
G1 X85.419 Y155.451 E7.24659
G1 X84.295 Y154.261 E7.29722
G1 X83.961 Y153.872 E7.31308
G1 X82.959 Y152.561 E7.36414
G1 X82.673 Y152.147 E7.37971
G1 X81.820 Y150.757 E7.43018
G1 X81.575 Y150.312 E7.44588
G1 X80.860 Y148.819 E7.49712
G1 X80.667 Y148.362 E7.51246
G1 X80.111 Y146.810 E7.56347
G1 X79.964 Y146.326 E7.57912
G1 X79.573 Y144.741 E7.62962
G1 X79.475 Y144.239 E7.64546
G1 X79.249 Y142.602 E7.69657
G1 X79.176 Y141.549 E7.72926
G1 X79.147 Y140.463 E7.76285
G1 X79.182 Y139.410 E7.79545
G1 X79.276 Y138.194 E7.83318
G1 X87.917 Y49.834 E10.58022
G1 X88.074 Y48.911 E10.60917
G1 X88.272 Y48.131 E10.63410
G1 X88.471 Y47.496 E10.65468
G1 X88.737 Y46.872 E10.67564
G1 X88.997 Y46.338 E10.69403
G1 E8.69403 F2400.00000
G92 E0
G1 X108.493 Y128.783 F7800.000
G1 E2.00000 F2400.00000
G1 F1800
G1 X106.650 Y129.186 E2.05838
G1 X105.491 Y129.339 E2.09456
G1 X105.011 Y129.366 E2.10944
G1 X104.952 Y129.648 E2.11835
G1 X105.987 Y130.168 E2.15422
G1 X107.152 Y130.935 E2.19735
G1 X108.219 Y131.830 E2.24044
G1 X109.175 Y132.842 E2.28352
G1 X110.007 Y133.960 E2.32664
G1 X110.702 Y135.166 E2.36970
G1 X111.255 Y136.444 E2.41279
G1 X111.653 Y137.779 E2.45591
G1 X111.895 Y139.151 E2.49900
G1 X111.976 Y140.540 E2.54205
G1 X111.895 Y141.931 E2.58517
G1 X111.653 Y143.303 E2.62827
G1 X111.255 Y144.638 E2.67139
G1 X110.702 Y145.916 E2.71448
G1 X110.007 Y147.122 E2.75753
G1 X109.175 Y148.240 E2.80065
G1 X108.219 Y149.252 E2.84374
G1 X107.152 Y150.147 E2.88682
G1 X105.987 Y150.914 E2.92996
G1 X104.743 Y151.539 E2.97304
G1 X103.435 Y152.013 E3.01611
G1 X102.081 Y152.336 E3.05918
G1 X100.696 Y152.497 E3.10233
G1 X99.304 Y152.497 E3.14537
G1 X97.919 Y152.336 E3.18852
G1 X96.565 Y152.013 E3.23159
G1 X95.257 Y151.539 E3.27466
G1 X94.013 Y150.914 E3.31774
G1 X92.848 Y150.147 E3.36087
G1 X91.781 Y149.252 E3.40396
G1 X90.825 Y148.240 E3.44704
G1 X89.993 Y147.122 E3.49016
G1 X89.298 Y145.916 E3.53322
G1 X88.745 Y144.638 E3.57631
G1 X88.347 Y143.303 E3.61943
G1 X88.105 Y141.931 E3.66252
G1 X88.024 Y140.540 E3.70564
G1 X88.105 Y139.151 E3.74869
G1 X88.347 Y137.779 E3.79179
G1 X88.745 Y136.444 E3.83491
G1 X89.298 Y135.166 E3.87799
G1 X89.993 Y133.960 E3.92105
G1 X90.825 Y132.842 E3.96417
G1 X91.781 Y131.830 E4.00726
G1 X92.848 Y130.935 E4.05034
G1 X94.013 Y130.168 E4.09348
G1 X95.257 Y129.543 E4.13656
G1 X96.565 Y129.069 E4.17963
G1 X97.919 Y128.746 E4.22270
G1 X99.304 Y128.585 E4.26585
G1 X100.696 Y128.585 E4.30889
G1 X102.081 Y128.746 E4.35204
G1 X103.666 Y129.124 E4.40247
G1 X103.642 Y128.274 E4.42878
G1 X100.468 Y116.928 E4.79330
G1 X100.332 Y116.100 E4.81927
G1 X100.382 Y115.208 E4.84690
G1 X100.627 Y114.350 E4.87450
G1 X101.050 Y113.564 E4.90213
G1 X101.635 Y112.890 E4.92977
G1 X102.352 Y112.360 E4.95732
G1 X103.167 Y111.998 E4.98494
G1 X104.033 Y111.823 E5.01227
G1 X104.933 Y111.839 E5.04012
G1 X105.799 Y112.050 E5.06770
G1 X106.600 Y112.443 E5.09531
G1 X107.295 Y113.004 E5.12295
G1 X107.853 Y113.699 E5.15052
G1 X108.246 Y114.502 E5.17820
G1 X108.454 Y115.368 E5.20575
G1 X108.470 Y116.260 E5.23336
G1 X108.291 Y117.134 E5.26096
G1 X107.927 Y117.947 E5.28852
G1 X107.417 Y118.634 E5.31498
G1 X107.051 Y119.001 E5.33103
G1 X106.558 Y119.369 E5.35007
G1 X108.410 Y127.578 E5.61048
G1 X108.488 Y128.709 E5.64553
G1 E3.64553 F2400.00000
G92 E0
G1 X106.757 Y131.423 F7800.000
G1 E2.00000 F2400.00000
G1 F1800
G1 X107.790 Y132.285 E2.04163
G1 X108.696 Y133.245 E2.08246
G1 X109.484 Y134.303 E2.12331
G1 X110.142 Y135.447 E2.16413
G1 X110.666 Y136.658 E2.20497
G1 X111.044 Y137.923 E2.24582
G1 X111.273 Y139.223 E2.28667
G1 X111.350 Y140.540 E2.32747
G1 X111.273 Y141.859 E2.36834
G1 X111.044 Y143.159 E2.40919
G1 X110.666 Y144.424 E2.45005
G1 X110.142 Y145.635 E2.49088
G1 X109.484 Y146.779 E2.53170
G1 X108.696 Y147.837 E2.57255
G1 X107.790 Y148.797 E2.61339
G1 X106.778 Y149.645 E2.65422
G1 X105.674 Y150.372 E2.69511
G1 X104.496 Y150.964 E2.73593
G1 X103.256 Y151.414 E2.77675
G1 X101.972 Y151.719 E2.81757
G1 X100.659 Y151.872 E2.85846
G1 X99.341 Y151.872 E2.89926
G1 X98.028 Y151.719 E2.94015
G1 X96.744 Y151.414 E2.98097
G1 X95.504 Y150.964 E3.02179
G1 X94.326 Y150.372 E3.06261
G1 X93.222 Y149.645 E3.10350
G1 X92.210 Y148.797 E3.14433
G1 X91.304 Y147.837 E3.18517
G1 X90.516 Y146.779 E3.22602
G1 X89.858 Y145.635 E3.26684
G1 X89.334 Y144.424 E3.30767
G1 X88.956 Y143.159 E3.34853
G1 X88.727 Y141.859 E3.38938
G1 X88.650 Y140.540 E3.43025
G1 X88.727 Y139.223 E3.47105
G1 X88.956 Y137.923 E3.51190
G1 X89.334 Y136.658 E3.55275
G1 X89.858 Y135.447 E3.59359
G1 X90.516 Y134.303 E3.63441
G1 X91.304 Y133.245 E3.67526
G1 X92.210 Y132.285 E3.71609
G1 X93.222 Y131.437 E3.75693
G1 X94.326 Y130.710 E3.79782
G1 X95.504 Y130.118 E3.83864
G1 X96.744 Y129.668 E3.87946
G1 X98.028 Y129.363 E3.92028
G1 X99.341 Y129.210 E3.96117
G1 X100.659 Y129.210 E4.00197
G1 X101.972 Y129.363 E4.04286
G1 X103.256 Y129.668 E4.08368
G1 X104.496 Y130.118 E4.12450
G1 X105.674 Y130.710 E4.16532
G1 X106.694 Y131.381 E4.20309
G1 X106.780 Y131.411 F7800.000
G1 E2.20309 F2400.00000
G92 E0
G1 X107.833 Y128.288 F7800.000
G1 E2.00000 F2400.00000
G1 F1800
G1 X106.542 Y128.570 E2.04087
G1 X105.433 Y128.717 E2.07551
G1 X104.282 Y128.780 E2.11118
G1 X104.264 Y128.179 E2.12979
G1 X101.079 Y116.793 E2.49562
G1 X100.959 Y116.066 E2.51840
G1 X101.002 Y115.313 E2.54174
G1 X101.209 Y114.587 E2.56510
G1 X101.567 Y113.922 E2.58849
G1 X102.062 Y113.351 E2.61185
G1 X102.668 Y112.904 E2.63516
G1 X103.358 Y112.596 E2.65853
G1 X104.090 Y112.449 E2.68162
G1 X104.852 Y112.463 E2.70522
G1 X105.585 Y112.641 E2.72855
G1 X106.262 Y112.973 E2.75190
G1 X106.850 Y113.447 E2.77527
G1 X107.322 Y114.035 E2.79860
G1 X107.654 Y114.715 E2.82201
G1 X107.830 Y115.448 E2.84532
G1 X107.844 Y116.202 E2.86868
G1 X107.692 Y116.942 E2.89203
G1 X107.385 Y117.630 E2.91534
G1 X106.943 Y118.225 E2.93828
G1 X106.636 Y118.533 E2.95174
G1 X106.316 Y118.784 E2.96431
G1 X105.982 Y118.988 E2.97644
G1 X105.855 Y119.092 E2.98152
G1 X107.790 Y127.669 E3.25358
G1 X107.828 Y128.213 E3.27046
G1 X107.939 Y128.777 F7800.000
G1 X109.154 Y129.279 F7800.000
G1 F1800
G1 X109.031 Y127.488 E3.32600
G1 X107.258 Y119.634 E3.57513
G1 X107.467 Y119.469 E3.58336
G1 X107.892 Y119.043 E3.60199
G1 X108.470 Y118.265 E3.63198
G1 X108.889 Y117.327 E3.66377
G1 X109.102 Y116.288 E3.69658
G1 X109.382 Y116.265 E3.70527
G1 X109.663 Y116.997 E3.72954
G1 X112.172 Y136.176 E4.32804
G1 X111.857 Y136.263 E4.33813
G1 X111.261 Y134.885 E4.38460
G1 X110.530 Y133.616 E4.42990
G1 X109.654 Y132.440 E4.47529
G1 X108.648 Y131.374 E4.52063
G1 X107.526 Y130.433 E4.56596
G1 X106.615 Y129.833 E4.59969
G1 X109.081 Y129.295 E4.67777
G1 E2.67777 F2400.00000
G92 E0
G1 X103.007 Y128.324 F7800.000
G1 E2.00000 F2400.00000
G1 F1800
G1 X102.190 Y128.130 E2.02601
G1 X100.732 Y127.960 E2.07142
G1 X99.268 Y127.960 E2.11670
G1 X97.810 Y128.130 E2.16211
G1 X96.386 Y128.469 E2.20743
G1 X95.009 Y128.968 E2.25275
G1 X93.699 Y129.626 E2.29809
G1 X92.474 Y130.433 E2.34347
G1 X91.352 Y131.374 E2.38880
G1 X90.346 Y132.440 E2.43415
G1 X89.470 Y133.616 E2.47953
G1 X88.739 Y134.885 E2.52483
G1 X88.143 Y136.263 E2.57130
G1 X87.828 Y136.176 E2.58139
G1 X90.337 Y116.997 E3.17989
G1 X96.060 Y102.120 E3.67310
G1 X96.060 Y51.259 E5.24678
G1 X96.096 Y50.734 E5.26307
G1 X96.199 Y50.334 E5.27586
G1 X96.346 Y50.033 E5.28621
G1 X96.534 Y49.795 E5.29560
G1 X96.768 Y49.610 E5.30484
G1 X97.064 Y49.466 E5.31502
G1 X97.501 Y49.356 E5.32895
G1 X97.802 Y49.332 E5.33830
G1 X102.007 Y49.325 E5.46841
G1 X102.531 Y49.361 E5.48466
G1 X102.927 Y49.462 E5.49730
G1 X103.233 Y49.610 E5.50783
G1 X103.466 Y49.795 E5.51703
G1 X103.653 Y50.032 E5.52639
G1 X103.802 Y50.337 E5.53689
G1 X103.906 Y50.755 E5.55020
G1 X103.940 Y51.257 E5.56578
G1 X103.940 Y102.120 E7.13953
G1 X107.855 Y112.295 E7.47687
G1 X107.622 Y112.464 E7.48576
G1 X106.938 Y111.913 E7.51296
G1 X106.013 Y111.459 E7.54485
G1 X105.013 Y111.216 E7.57667
G1 X103.976 Y111.197 E7.60877
G1 X102.976 Y111.399 E7.64034
G1 X102.035 Y111.817 E7.67220
G1 X101.208 Y112.428 E7.70401
G1 X100.533 Y113.207 E7.73592
G1 X100.044 Y114.114 E7.76778
G1 X99.762 Y115.104 E7.79963
G1 X99.704 Y116.133 E7.83154
G1 X99.857 Y117.064 E7.86071
G1 X102.987 Y128.252 E8.22019
G1 E6.22019 F2400.00000
G92 E0
G1 X111.628 Y127.197 F7800.000
G1 E2.00000 F2400.00000
G1 F1800
G1 X113.145 Y138.797 E2.36196
G1 X113.248 Y140.064 E2.40131
G1 X113.227 Y141.420 E2.44327
G1 X113.066 Y142.781 E2.48567
G1 X112.766 Y144.113 E2.52791
G1 X112.331 Y145.408 E2.57018
G1 X111.766 Y146.651 E2.61243
G1 X111.074 Y147.828 E2.65467
G1 X110.266 Y148.930 E2.69695
G1 X109.349 Y149.940 E2.73917
G1 X108.332 Y150.853 E2.78145
G1 X107.227 Y151.654 E2.82368
G1 X106.045 Y152.339 E2.86595
G1 X104.799 Y152.899 E2.90821
G1 X103.503 Y153.327 E2.95046
G1 X102.169 Y153.619 E2.99272
G1 X100.812 Y153.773 E3.03496
G1 X99.446 Y153.787 E3.07724
G1 X98.087 Y153.659 E3.11945
G1 X96.748 Y153.392 E3.16172
G1 X95.443 Y152.990 E3.20397
G1 X94.186 Y152.455 E3.24622
G1 X92.991 Y151.794 E3.28848
G1 X91.871 Y151.013 E3.33073
G1 X90.831 Y150.115 E3.37325
G1 X89.902 Y149.132 E3.41509
G1 X89.070 Y148.042 E3.45750
G1 X88.356 Y146.879 E3.49974
G1 X87.767 Y145.647 E3.54201
G1 X87.306 Y144.361 E3.58428
G1 X86.980 Y143.036 E3.62650
G1 X86.793 Y141.683 E3.66876
G1 X86.746 Y140.319 E3.71096
G1 X86.856 Y138.792 E3.75835
G1 X89.727 Y116.842 E4.44330
G1 X95.435 Y102.004 E4.93521
G1 X95.435 Y51.237 E6.50600
G1 X95.477 Y50.634 E6.52469
G1 X95.610 Y50.117 E6.54122
G1 X95.814 Y49.699 E6.55561
G1 X96.089 Y49.350 E6.56935
G1 X96.434 Y49.077 E6.58297
G1 X96.849 Y48.876 E6.59725
G1 X97.399 Y48.737 E6.61480
G1 X97.776 Y48.707 E6.62652
G1 X102.029 Y48.700 E6.75809
G1 X102.631 Y48.742 E6.77676
G1 X103.142 Y48.872 E6.79308
G1 X103.567 Y49.078 E6.80768
G1 X103.911 Y49.350 E6.82128
G1 X104.186 Y49.698 E6.83499
G1 X104.392 Y50.123 E6.84959
G1 X104.526 Y50.657 E6.86665
G1 X104.565 Y51.236 E6.88458
G1 X104.572 Y54.071 E6.97230
G1 X104.565 Y102.004 E8.45541
G1 X110.273 Y116.842 E8.94733
G1 X111.618 Y127.123 E9.26814
G1 X112.247 Y127.116 F7800.000
G1 F1800
G1 X113.766 Y138.731 E9.63057
G1 X113.873 Y140.039 E9.67118
G1 X113.851 Y141.465 E9.71531
G1 X113.683 Y142.887 E9.75962
G1 X113.368 Y144.281 E9.80385
G1 X112.913 Y145.637 E9.84810
G1 X112.321 Y146.939 E9.89236
G1 X111.597 Y148.172 E9.93659
G1 X110.750 Y149.326 E9.98087
G1 X109.790 Y150.383 E10.02508
G1 X108.725 Y151.339 E10.06935
G1 X107.568 Y152.179 E10.11358
G1 X106.331 Y152.896 E10.15785
G1 X105.026 Y153.482 E10.20210
G1 X103.668 Y153.930 E10.24634
G1 X102.271 Y154.237 E10.29059
G1 X100.851 Y154.398 E10.33483
G1 X99.420 Y154.412 E10.37911
G1 X97.997 Y154.278 E10.42332
G1 X96.594 Y153.999 E10.46758
G1 X95.228 Y153.577 E10.51181
G1 X93.912 Y153.017 E10.55606
G1 X92.660 Y152.325 E10.60032
G1 X91.487 Y151.507 E10.64456
G1 X90.402 Y150.571 E10.68892
G1 X89.424 Y149.535 E10.73300
G1 X88.554 Y148.396 E10.77732
G1 X87.807 Y147.178 E10.82155
G1 X87.189 Y145.888 E10.86581
G1 X86.707 Y144.541 E10.91007
G1 X86.365 Y143.153 E10.95429
G1 X86.170 Y141.736 E10.99855
G1 X86.121 Y140.308 E11.04278
G1 X86.234 Y138.729 E11.09175
G1 X89.117 Y116.687 E11.77957
G1 X94.810 Y101.888 E12.27020
G1 X94.810 Y51.215 E13.83809
G1 X94.857 Y50.534 E13.85919
G1 X95.020 Y49.900 E13.87945
G1 X95.282 Y49.364 E13.89789
G1 X95.643 Y48.906 E13.91596
G1 X96.099 Y48.545 E13.93396
G1 X96.634 Y48.286 E13.95235
G1 X97.298 Y48.118 E13.97352
G1 X97.751 Y48.083 E13.98760
G1 X102.051 Y48.075 E14.12063
G1 X102.731 Y48.122 E14.14172
G1 X103.357 Y48.282 E14.16173
G1 X103.901 Y48.545 E14.18041
G1 X104.357 Y48.906 E14.19840
G1 X104.718 Y49.364 E14.21646
G1 X104.983 Y49.908 E14.23516
G1 X105.146 Y50.560 E14.25597
G1 X105.190 Y51.214 E14.27625
G1 X105.197 Y54.070 E14.36461
G1 X105.189 Y101.888 E15.84416
G1 X110.883 Y116.687 E16.33479
G1 X112.238 Y127.042 E16.65791
G1 X111.865 Y127.439 F7800.000
G1 E14.65791 F2400.00000
G92 E0
G1 X105.773 Y134.442 F7800.000
G1 E2.00000 F2400.00000
G1 F1800
G1 X106.478 Y135.197 E2.03195
G1 X107.084 Y136.034 E2.06392
G1 X107.586 Y136.940 E2.09598
G1 X107.972 Y137.899 E2.12795
G1 X108.235 Y138.897 E2.15989
G1 X108.374 Y139.921 E2.19188
G1 X108.386 Y140.956 E2.22391
G1 X108.272 Y141.985 E2.25592
G1 X108.032 Y142.991 E2.28792
G1 X107.671 Y143.958 E2.31985
G1 X107.192 Y144.875 E2.35188
G1 X106.606 Y145.726 E2.38385
G1 X105.918 Y146.499 E2.41586
G1 X105.142 Y147.181 E2.44783
G1 X104.287 Y147.761 E2.47980
G1 X103.366 Y148.234 E2.51182
G1 X102.395 Y148.590 E2.54382
G1 X101.388 Y148.823 E2.57580
G1 X100.361 Y148.931 E2.60776
G1 X99.326 Y148.910 E2.63979
G1 X98.303 Y148.764 E2.67178
G1 X97.305 Y148.494 E2.70376
G1 X96.347 Y148.102 E2.73577
G1 X95.446 Y147.597 E2.76774
G1 X94.615 Y146.985 E2.79967
G1 X93.863 Y146.272 E2.83173
G1 X93.206 Y145.474 E2.86373
G1 X92.649 Y144.602 E2.89574
G1 X92.207 Y143.670 E2.92767
G1 X91.882 Y142.688 E2.95964
G1 X91.679 Y141.674 E2.99167
G1 X91.604 Y140.642 E3.02366
G1 X91.654 Y139.609 E3.05566
G1 X91.832 Y138.593 E3.08758
G1 X92.135 Y137.602 E3.11963
G1 X92.554 Y136.657 E3.15165
G1 X93.088 Y135.773 E3.18360
G1 X93.726 Y134.960 E3.21559
G1 X94.460 Y134.231 E3.24759
G1 X95.278 Y133.597 E3.27960
