; generated by Slic3r 0.9.10b on 2015-08-05 at 15:38:33

; layer_height = 0.4
; perimeters = 3
; top_solid_layers = 3
; bottom_solid_layers = 3
; fill_density = 0.4
; perimeter_speed = 30
; infill_speed = 60
; travel_speed = 130
; nozzle_diameter = 0.5
; filament_diameter = 3
; extrusion_multiplier = 1
; perimeters extrusion width = 0.53mm
; infill extrusion width = 0.53mm
; solid infill extrusion width = 0.53mm
; top infill extrusion width = 0.53mm
; first layer extrusion width = 0.62mm

G21 ; set units to millimeters
M107
M104 S200 ; set temperature

M109 S200 ; wait for temperature to be reached
G90 ; use absolute coordinates
G92 E0
M82 ; use absolute distances for extrusion
G1 F1800.000 E-1.00000
G92 E0
G1 Z0.400 F7800.000
G1 X86.247 Y99.626
G1 F1800.000 E1.00000
G1 X86.619 Y99.305 F540.000 E1.01653
G1 X86.996 Y99.023 E1.03237
G1 X87.396 Y98.767 E1.04835
G1 X87.925 Y98.493 E1.06836
G1 X88.323 Y98.330 E1.08281
G1 X88.750 Y98.193 E1.09792
G1 X89.171 Y98.093 E1.11247
G1 X89.651 Y98.013 E1.12881
G1 X90.196 Y97.956 E1.14725
G1 X90.820 Y97.925 E1.16828
G1 X91.544 Y97.925 E1.19260
G1 X92.392 Y97.961 E1.22116
G1 X96.636 Y98.314 E1.36436
G1 X97.528 Y98.349 E1.39438
G1 X98.278 Y98.344 E1.41961
G1 X99.188 Y98.288 E1.45025
G1 X99.177 Y99.062 E1.47630
G1 X99.230 Y99.725 E1.49867
G1 X99.345 Y100.430 E1.52269
G1 X99.518 Y101.148 E1.54750
G1 X99.793 Y102.029 E1.57854
G1 X100.124 Y102.895 E1.60974
G1 X100.536 Y103.824 E1.64391
G1 X101.035 Y104.820 E1.68134
G1 X101.625 Y105.883 E1.72226
G1 X102.118 Y106.697 E1.75426
G1 X102.017 Y106.817 E1.75952
G1 X101.208 Y106.493 E1.78882
G1 X100.582 Y106.291 E1.81092
G1 X99.981 Y106.147 E1.83170
G1 X99.484 Y106.072 E1.84861
G1 X98.838 Y106.026 E1.87039
G1 X98.281 Y106.050 E1.88914
G1 X97.750 Y106.132 E1.90721
G1 X97.237 Y106.273 E1.92508
G1 X96.746 Y106.474 E1.94295
G1 X96.279 Y106.735 E1.96093
G1 X95.842 Y107.054 E1.97914
G1 X95.440 Y107.428 E1.99758
G1 X95.072 Y107.859 E2.01663
G1 X94.760 Y108.310 E2.03508
G1 X94.479 Y108.806 E2.05428
G1 X94.206 Y109.380 E2.07563
G1 X93.909 Y110.107 E2.10205
G1 X93.174 Y112.057 E2.17213
G1 X92.940 Y112.601 E2.19203
G1 X92.723 Y113.044 E2.20861
G1 X92.518 Y113.404 E2.22256
G1 X92.322 Y113.696 E2.23439
G1 X92.135 Y113.931 E2.24448
G1 X91.951 Y114.122 E2.25338
G1 X91.754 Y114.289 E2.26208
G1 X91.537 Y114.436 E2.27090
G1 X91.278 Y114.575 E2.28079
G1 X90.980 Y114.698 E2.29163
G1 X90.640 Y114.802 E2.30358
G1 X90.257 Y114.882 E2.31673
G1 X89.833 Y114.932 E2.33110
G1 X89.371 Y114.950 E2.34663
G1 X88.879 Y114.932 E2.36321
G1 X88.350 Y114.873 E2.38110
G1 X87.805 Y114.771 E2.39973
G1 X87.278 Y114.634 E2.41805
G1 X86.762 Y114.463 E2.43632
G1 X86.269 Y114.262 E2.45425
G1 X85.806 Y114.036 E2.47157
G1 X85.381 Y113.791 E2.48807
G1 X84.998 Y113.533 E2.50358
G1 X84.658 Y113.266 E2.51812
G1 X84.364 Y112.995 E2.53158
G1 X84.086 Y112.694 E2.54533
G1 X83.835 Y112.371 E2.55909
G1 X83.607 Y112.022 E2.57311
G1 X83.402 Y111.644 E2.58757
G1 X83.221 Y111.233 E2.60266
G1 X83.065 Y110.787 E2.61856
G1 X82.936 Y110.302 E2.63545
G1 X82.842 Y109.810 E2.65228
G1 X82.774 Y109.245 E2.67143
G1 X82.741 Y108.639 E2.69183
G1 X82.748 Y107.992 E2.71358
G1 X82.797 Y107.307 E2.73669
G1 X82.891 Y106.585 E2.76115
G1 X83.007 Y105.952 E2.78280
G1 X83.185 Y105.193 E2.80903
G1 X83.396 Y104.458 E2.83475
G1 X83.637 Y103.754 E2.85977
G1 X83.905 Y103.086 E2.88395
G1 X84.196 Y102.459 E2.90719
G1 X84.505 Y101.876 E2.92941
G1 X84.831 Y101.336 E2.95060
G1 X85.171 Y100.842 E2.97076
G1 X85.521 Y100.393 E2.98991
G1 X85.880 Y99.988 E3.00812
G1 X86.183 Y99.689 E3.02244
G1 X85.843 Y99.189 F7800.000
G1 X86.246 Y98.841 F540.000 E3.04035
G1 X86.658 Y98.534 E3.05762
G1 X87.089 Y98.258 E3.07484
G1 X87.679 Y97.952 E3.09718
G1 X88.119 Y97.772 E3.11318
G1 X88.591 Y97.621 E3.12983
G1 X89.053 Y97.510 E3.14582
G1 X89.570 Y97.424 E3.16346
G1 X90.150 Y97.363 E3.18307
G1 X90.806 Y97.331 E3.20514
G1 X91.556 Y97.331 E3.23037
G1 X92.427 Y97.368 E3.25968
G1 X93.548 Y97.452 E3.29748
G1 X95.465 Y97.630 E3.36222
G1 X96.670 Y97.721 E3.40286
G1 X97.538 Y97.755 E3.43205
G1 X98.258 Y97.750 E3.45629
G1 X98.902 Y97.710 E3.47798
G1 X99.486 Y97.636 E3.49776
G1 X99.887 Y97.555 E3.51153
G1 X99.780 Y98.476 E3.54271
G1 X99.772 Y99.043 E3.56178
G1 X99.820 Y99.654 E3.58239
G1 X99.928 Y100.313 E3.60484
G1 X100.093 Y100.998 E3.62856
G1 X100.354 Y101.833 E3.65796
G1 X100.674 Y102.669 E3.68805
G1 X101.074 Y103.571 E3.72123
G1 X101.560 Y104.542 E3.75777
G1 X102.139 Y105.585 E3.79788
G1 X102.815 Y106.701 E3.84174
G1 X103.780 Y108.176 E3.90104
G1 X103.595 Y108.368 E3.91001
G1 X102.979 Y107.991 E3.93429
G1 X102.281 Y107.611 E3.96102
G1 X101.624 Y107.300 E3.98544
G1 X101.006 Y107.052 E4.00784
G1 X100.422 Y106.864 E4.02848
G1 X99.867 Y106.731 E4.04766
G1 X99.339 Y106.651 E4.06562
G1 X98.834 Y106.621 E4.08265
G1 X98.340 Y106.643 E4.09928
G1 X97.875 Y106.714 E4.11510
G1 X97.429 Y106.837 E4.13064
G1 X97.004 Y107.010 E4.14608
G1 X96.600 Y107.236 E4.16162
G1 X96.221 Y107.513 E4.17743
G1 X95.870 Y107.840 E4.19356
G1 X95.544 Y108.222 E4.21044
G1 X95.264 Y108.626 E4.22698
G1 X95.006 Y109.081 E4.24455
G1 X94.750 Y109.620 E4.26463
G1 X94.463 Y110.323 E4.29018
G1 X93.724 Y112.281 E4.36053
G1 X93.480 Y112.849 E4.38133
G1 X93.249 Y113.322 E4.39903
G1 X93.023 Y113.717 E4.41433
G1 X92.802 Y114.048 E4.42771
G1 X92.582 Y114.323 E4.43954
G1 X92.359 Y114.556 E4.45040
G1 X92.114 Y114.763 E4.46120
G1 X91.845 Y114.945 E4.47212
G1 X91.532 Y115.113 E4.48405
G1 X91.180 Y115.258 E4.49686
G1 X90.787 Y115.378 E4.51067
G1 X90.353 Y115.469 E4.52559
G1 X89.880 Y115.525 E4.54162
G1 X89.371 Y115.545 E4.55873
G1 X88.834 Y115.525 E4.57680
G1 X88.262 Y115.461 E4.59616
G1 X87.676 Y115.351 E4.61621
G1 X87.110 Y115.204 E4.63589
G1 X86.556 Y115.021 E4.65549
G1 X86.026 Y114.804 E4.67476
G1 X85.527 Y114.561 E4.69343
G1 X85.066 Y114.295 E4.71132
G1 X84.648 Y114.013 E4.72827
G1 X84.273 Y113.718 E4.74432
G1 X83.943 Y113.415 E4.75936
G1 X83.633 Y113.079 E4.77476
G1 X83.351 Y112.717 E4.79020
G1 X83.096 Y112.327 E4.80587
G1 X82.868 Y111.906 E4.82197
G1 X82.668 Y111.452 E4.83866
G1 X82.497 Y110.962 E4.85610
G1 X82.356 Y110.434 E4.87447
G1 X82.255 Y109.902 E4.89269
G1 X82.181 Y109.296 E4.91320
G1 X82.147 Y108.652 E4.93491
G1 X82.154 Y107.968 E4.95791
G1 X82.206 Y107.247 E4.98220
G1 X82.304 Y106.494 E5.00775
G1 X82.425 Y105.831 E5.03041
G1 X82.609 Y105.043 E5.05764
G1 X82.829 Y104.279 E5.08435
G1 X83.080 Y103.547 E5.11039
G1 X83.359 Y102.851 E5.13561
G1 X83.663 Y102.195 E5.15990
G1 X83.988 Y101.582 E5.18323
G1 X84.332 Y101.014 E5.20556
G1 X84.691 Y100.491 E5.22690
G1 X85.064 Y100.013 E5.24729
G1 X85.449 Y99.580 E5.26677
G1 X85.780 Y99.252 E5.28243
G1 X85.432 Y98.760 F7800.000
G1 X85.874 Y98.378 F378.000 E5.30207
G1 X86.319 Y98.045 E5.32076
G1 X86.782 Y97.749 E5.33923
G1 X87.433 Y97.411 E5.36390
G1 X87.915 Y97.213 E5.38145
G1 X88.431 Y97.048 E5.39965
G1 X88.935 Y96.928 E5.41708
G1 X89.490 Y96.835 E5.43600
G1 X90.105 Y96.770 E5.45679
G1 X90.792 Y96.737 E5.47991
G1 X91.569 Y96.737 E5.50605
G1 X92.462 Y96.774 E5.53610
G1 X93.598 Y96.860 E5.57441
G1 X95.515 Y97.038 E5.63915
G1 X96.704 Y97.128 E5.67925
G1 X97.547 Y97.160 E5.70762
G1 X98.238 Y97.155 E5.73085
G1 X98.847 Y97.118 E5.75136
G1 X99.389 Y97.049 E5.76975
G1 X99.877 Y96.951 E5.78648
G1 X100.317 Y96.822 E5.80190
G1 X101.023 Y96.543 E5.82745
G1 X100.663 Y97.247 E5.85403
G1 X100.525 Y97.630 E5.86773
G1 X100.427 Y98.051 E5.88227
G1 X100.373 Y98.514 E5.89796
G1 X100.366 Y99.023 E5.91507
G1 X100.411 Y99.582 E5.93392
G1 X100.511 Y100.195 E5.95480
G1 X100.669 Y100.849 E5.97743
G1 X100.916 Y101.637 E6.00520
G1 X101.223 Y102.442 E6.03418
G1 X101.611 Y103.317 E6.06637
G1 X102.086 Y104.265 E6.10201
G1 X102.653 Y105.287 E6.14132
G1 X103.318 Y106.384 E6.18445
G1 X104.084 Y107.555 E6.23153
G1 X104.955 Y108.799 E6.28260
G1 X106.893 Y111.367 E6.39078
G1 X106.740 Y111.512 E6.39787
G1 X105.886 Y110.784 E6.43561
G1 X105.001 Y110.078 E6.47368
G1 X104.173 Y109.468 E6.50826
G1 X103.401 Y108.946 E6.53961
G1 X102.681 Y108.506 E6.56798
G1 X102.011 Y108.141 E6.59365
G1 X101.386 Y107.845 E6.61689
G1 X100.804 Y107.612 E6.63797
G1 X100.261 Y107.437 E6.65716
G1 X99.753 Y107.315 E6.67473
G1 X99.277 Y107.242 E6.69093
G1 X98.829 Y107.216 E6.70601
G1 X98.398 Y107.235 E6.72052
G1 X97.999 Y107.296 E6.73410
G1 X97.621 Y107.400 E6.74729
G1 X97.262 Y107.547 E6.76032
G1 X96.922 Y107.737 E6.77342
G1 X96.600 Y107.972 E6.78682
G1 X96.300 Y108.252 E6.80064
G1 X96.015 Y108.585 E6.81536
G1 X95.768 Y108.942 E6.82997
G1 X95.534 Y109.355 E6.84593
G1 X95.294 Y109.860 E6.86474
G1 X95.016 Y110.540 E6.88942
G1 X94.275 Y112.504 E6.96003
G1 X94.020 Y113.098 E6.98174
G1 X93.774 Y113.600 E7.00057
G1 X93.529 Y114.030 E7.01721
G1 X93.282 Y114.399 E7.03214
G1 X93.030 Y114.714 E7.04570
G1 X92.766 Y114.989 E7.05852
G1 X92.473 Y115.237 E7.07143
G1 X92.153 Y115.455 E7.08445
G1 X91.787 Y115.651 E7.09842
G1 X91.381 Y115.819 E7.11319
G1 X90.935 Y115.954 E7.12887
G1 X90.449 Y116.055 E7.14555
G1 X89.927 Y116.118 E7.16325
G1 X89.371 Y116.140 E7.18193
G1 X88.790 Y116.118 E7.20149
G1 X88.159 Y116.046 E7.22284
G1 X87.546 Y115.931 E7.24381
G1 X86.941 Y115.774 E7.26483
G1 X86.350 Y115.578 E7.28577
G1 X85.783 Y115.347 E7.30637
G1 X85.248 Y115.086 E7.32640
G1 X84.751 Y114.800 E7.34567
G1 X84.298 Y114.494 E7.36407
G1 X83.887 Y114.171 E7.38162
G1 X83.523 Y113.836 E7.39825
G1 X83.179 Y113.464 E7.41530
G1 X82.867 Y113.063 E7.43240
G1 X82.585 Y112.631 E7.44974
G1 X82.334 Y112.167 E7.46747
G1 X82.115 Y111.670 E7.48576
G1 X81.928 Y111.137 E7.50475
G1 X81.777 Y110.566 E7.52459
G1 X81.667 Y109.993 E7.54421
G1 X81.589 Y109.348 E7.56607
G1 X81.553 Y108.664 E7.58909
G1 X81.560 Y107.943 E7.61333
G1 X81.614 Y107.188 E7.63881
G1 X81.716 Y106.402 E7.66546
G1 X81.843 Y105.710 E7.68912
G1 X82.034 Y104.893 E7.71734
G1 X82.262 Y104.100 E7.74506
G1 X82.523 Y103.339 E7.77211
G1 X82.814 Y102.615 E7.79836
G1 X83.131 Y101.931 E7.82372
G1 X83.471 Y101.289 E7.84815
G1 X83.832 Y100.692 E7.87162
G1 X84.212 Y100.140 E7.89415
G1 X84.607 Y99.633 E7.91577
G1 X85.017 Y99.171 E7.93654
G1 X85.369 Y98.823 E7.95317
G1 X85.988 Y98.939 F7800.000
G1 F1800.000 E6.95317
G92 E0
G1 X104.362 Y93.809 F7800.000
G1 F1800.000 E1.00000
G1 X105.548 Y90.355 F540.000 E1.12279
G1 X105.806 Y89.714 E1.14604
G1 X106.059 Y89.161 E1.16647
G1 X106.313 Y88.675 E1.18491
G1 X106.590 Y88.218 E1.20289
G1 X106.896 Y87.786 E1.22069
G1 X107.228 Y87.377 E1.23841
G1 X107.585 Y86.996 E1.25595
G1 X107.961 Y86.646 E1.27325
G1 X108.354 Y86.328 E1.29024
G1 X108.759 Y86.045 E1.30687
G1 X109.174 Y85.797 E1.32311
G1 X109.594 Y85.585 E1.33894
G1 X110.017 Y85.409 E1.35435
G1 X110.448 Y85.267 E1.36960
G1 X110.871 Y85.162 E1.38427
G1 X111.293 Y85.091 E1.39866
G1 X111.713 Y85.054 E1.41282
G1 X112.130 Y85.049 E1.42684
G1 X112.544 Y85.077 E1.44080
G1 X112.958 Y85.139 E1.45487
G1 X113.386 Y85.238 E1.46966
G1 X113.835 Y85.381 E1.48549
G1 X114.296 Y85.566 E1.50220
G1 X114.755 Y85.792 E1.51941
G1 X115.199 Y86.050 E1.53668
G1 X115.637 Y86.347 E1.55448
G1 X116.026 Y86.658 E1.57122
G1 X116.348 Y86.955 E1.58596
G1 X116.617 Y87.245 E1.59927
G1 X116.833 Y87.520 E1.61100
G1 X116.998 Y87.771 E1.62110
G1 X117.116 Y87.994 E1.62958
G1 X117.193 Y88.186 E1.63657
G1 X117.256 Y88.471 E1.64635
G1 X117.242 Y88.726 E1.65495
G1 X117.202 Y88.877 E1.66020
G1 X117.129 Y89.056 E1.66669
G1 X117.012 Y89.269 E1.67488
G1 X116.852 Y89.497 E1.68426
G1 X116.646 Y89.740 E1.69497
G1 X116.379 Y90.007 E1.70766
G1 X116.048 Y90.293 E1.72238
G1 X115.647 Y90.594 E1.73923
G1 X115.178 Y90.904 E1.75815
G1 X114.570 Y91.255 E1.78173
G1 X113.889 Y91.599 E1.80739
G1 X113.145 Y91.926 E1.83471
G1 X112.359 Y92.226 E1.86303
G1 X111.527 Y92.497 E1.89244
G1 X110.743 Y92.714 E1.91980
G1 X109.881 Y92.914 E1.94957
G1 X108.921 Y93.102 E1.98244
G1 X107.607 Y93.315 E2.02720
G1 X105.362 Y93.640 E2.10349
G1 X104.450 Y93.794 E2.13460
G1 X104.437 Y94.399 F7800.000
G1 X103.400 Y94.615 F540.000 E2.17025
G1 X103.851 Y93.467 E2.21173
G1 X104.993 Y90.145 E2.32988
G1 X105.260 Y89.479 E2.35399
G1 X105.525 Y88.900 E2.37541
G1 X105.795 Y88.383 E2.39503
G1 X106.093 Y87.893 E2.41432
G1 X106.422 Y87.426 E2.43350
G1 X106.780 Y86.986 E2.45260
G1 X107.165 Y86.575 E2.47152
G1 X107.571 Y86.197 E2.49020
G1 X107.996 Y85.853 E2.50858
G1 X108.436 Y85.545 E2.52662
G1 X108.887 Y85.276 E2.54429
G1 X109.346 Y85.044 E2.56158
G1 X109.810 Y84.852 E2.57847
G1 X110.283 Y84.695 E2.59523
G1 X110.750 Y84.579 E2.61142
G1 X111.218 Y84.501 E2.62735
G1 X111.683 Y84.460 E2.64307
G1 X112.147 Y84.455 E2.65866
G1 X112.608 Y84.486 E2.67420
G1 X113.069 Y84.555 E2.68986
G1 X113.543 Y84.665 E2.70625
G1 X114.036 Y84.821 E2.72364
G1 X114.538 Y85.023 E2.74183
G1 X115.036 Y85.267 E2.76047
G1 X115.516 Y85.546 E2.77914
G1 X115.980 Y85.861 E2.79801
G1 X116.414 Y86.207 E2.81667
G1 X116.768 Y86.535 E2.83289
G1 X117.069 Y86.859 E2.84776
G1 X117.316 Y87.172 E2.86118
G1 X117.510 Y87.468 E2.87309
G1 X117.655 Y87.743 E2.88354
G1 X117.757 Y87.995 E2.89266
G1 X117.817 Y88.212 E2.90024
G1 X117.849 Y88.421 E2.90736
G1 X117.852 Y88.626 E2.91425
G1 X117.827 Y88.838 E2.92142
G1 X117.767 Y89.064 E2.92930
G1 X117.667 Y89.312 E2.93828
G1 X117.517 Y89.584 E2.94874
G1 X117.323 Y89.861 E2.96011
G1 X117.083 Y90.143 E2.97255
G1 X116.784 Y90.443 E2.98679
G1 X116.421 Y90.756 E3.00293
G1 X115.990 Y91.080 E3.02106
G1 X115.490 Y91.410 E3.04118
G1 X114.853 Y91.778 E3.06593
G1 X114.143 Y92.137 E3.09269
G1 X113.371 Y92.476 E3.12104
G1 X112.557 Y92.786 E3.15034
G1 X111.698 Y93.066 E3.18070
G1 X110.889 Y93.290 E3.20892
G1 X110.005 Y93.496 E3.23945
G1 X109.026 Y93.687 E3.27300
G1 X107.698 Y93.903 E3.31826
G1 X105.454 Y94.227 E3.39449
G1 X104.525 Y94.384 E3.42617
G1 X104.536 Y94.984 F7800.000
G1 X103.797 Y95.139 F378.000 E3.45154
G1 X103.214 Y95.294 E3.47185
G1 X102.717 Y95.460 E3.48947
G1 X102.148 Y95.701 E3.51024
G1 X102.090 Y95.632 E3.51327
G1 X102.523 Y94.959 E3.54016
G1 X102.775 Y94.490 E3.55809
G1 X103.030 Y93.932 E3.57872
G1 X103.294 Y93.261 E3.60296
G1 X104.437 Y89.934 E3.72126
G1 X104.714 Y89.245 E3.74622
G1 X104.991 Y88.638 E3.76865
G1 X105.278 Y88.091 E3.78944
G1 X105.596 Y87.567 E3.81005
G1 X105.948 Y87.067 E3.83061
G1 X106.332 Y86.595 E3.85108
G1 X106.745 Y86.154 E3.87138
G1 X107.181 Y85.748 E3.89144
G1 X107.639 Y85.378 E3.91122
G1 X108.113 Y85.046 E3.93068
G1 X108.600 Y84.755 E3.94978
G1 X109.098 Y84.504 E3.96851
G1 X109.602 Y84.294 E3.98688
G1 X110.118 Y84.124 E4.00515
G1 X110.630 Y83.997 E4.02287
G1 X111.142 Y83.911 E4.04034
G1 X111.654 Y83.866 E4.05762
G1 X112.164 Y83.860 E4.07477
G1 X112.672 Y83.895 E4.09190
G1 X113.179 Y83.970 E4.10915
G1 X113.701 Y84.091 E4.12714
G1 X114.237 Y84.262 E4.14608
G1 X114.780 Y84.480 E4.16575
G1 X115.316 Y84.743 E4.18582
G1 X115.832 Y85.043 E4.20590
G1 X116.323 Y85.376 E4.22586
G1 X116.802 Y85.756 E4.24641
G1 X117.188 Y86.114 E4.26411
G1 X117.521 Y86.472 E4.28056
G1 X117.799 Y86.825 E4.29565
G1 X118.023 Y87.166 E4.30937
G1 X118.195 Y87.493 E4.32180
G1 X118.320 Y87.803 E4.33305
G1 X118.399 Y88.087 E4.34295
G1 X118.443 Y88.372 E4.35264
G1 X118.447 Y88.657 E4.36226
G1 X118.412 Y88.949 E4.37215
G1 X118.332 Y89.252 E4.38267
G1 X118.204 Y89.568 E4.39413
G1 X118.022 Y89.899 E4.40685
G1 X117.793 Y90.224 E4.42021
G1 X117.521 Y90.546 E4.43439
G1 X117.189 Y90.878 E4.45018
G1 X116.794 Y91.219 E4.46773
G1 X116.332 Y91.566 E4.48715
G1 X115.803 Y91.916 E4.50848
G1 X115.136 Y92.301 E4.53439
G1 X114.396 Y92.674 E4.56225
G1 X113.596 Y93.026 E4.59163
G1 X112.755 Y93.346 E4.62191
G1 X111.870 Y93.635 E4.65322
G1 X111.036 Y93.866 E4.68230
G1 X110.130 Y94.077 E4.71360
G1 X109.131 Y94.272 E4.74783
G1 X107.788 Y94.490 E4.79358
G1 X105.546 Y94.814 E4.86975
G1 X104.624 Y94.970 E4.90119
